X:1
T:Shall I Be Saved Tonight?
T:Shall I Be Saved Tonight?
T:Mrs. N. Bliss Wilson
T:Frances Jane (Fanny) Crosby, 1881
T:Public Domain Courtesy of the Cyber Hymnal™
T:Public Domain Courtesy of the Cyber Hymnal™
C:Mrs. N. Bliss Wilson
Z:Public Domain
Z:Courtesy of the Cyber Hymnal™
%%score ( 1 2 ) ( 3 4 )
L:1/8
Q:1/4=180
M:3/4
K:F
V:1 treble 
V:2 treble 
V:3 bass 
V:4 bass 
V:1
 [FA]2 [FA]2 [FA]2 | [FA]2 [EG]2 [FA]2 | [Ac]4 [Ac]2 | [FA]6 | [EG]2 [EG]2 [FA]2 | [Fc]4 [EG]2 | %6
w: 1.~Je- sus is|plead- ing with|my poor|soul,|Shall I be|saved to-|
w: 2.~Je- sus was|nailed to the|cross for|me,|Shall I be|saved to-|
w: 3.~Je- sus is|knock- ing at|my poor|heart,|Shall I be|saved to-|
w: 4.~What if that|voice I should|hear no|more,|Shall I be|saved to-|
 [FA]6 | [FA]2 [FA]2 [FA]2 | [FA]2 [EG]2 [FA]2 | ([Ac]2 [Bd]2) [Ac]2 | [FA]6 | [Ac]2 [Bd]2 [Bd]2 | %12
w: night?|If I be-|lieve He will|make * me|whole,|Shall I be|
w: night?|How can my|heart so un-|grate- * ful|be?|Shall I be|
w: night?|What if His|Spir- it should|now * de-|part?|Shall I be|
w: night?|Quick- ly I’ll|o- pen this|bolt- * ed|door.|Save me, O|
 ([Ac]2 [FA]2) [EG]2 | F6 | [FA]2 [FA]2 [FA]2 | [Ad]2 [Ad]2 [Ae]2 | [Af]4 [Ge]2 | [Fd]6 | %18
w: saved * to-|night?|Ten- der- ly,|sad- ly, I|hear Him|say,|
w: saved * to-|night?|Now He will|save me by|grace di-|vine.|
w: saved * to-|night?|O- ver and|o- ver His|voice I|hear,|
w: Lord, * to-|night.|Bless- èd Re-|deeme- r, come|in, come|in,|
 [Fd]2 [FA]2 [FA]2 | [Ac]2 [Ac]2 [Ac]2 | [Ec]4 [EG]2 | [FA]6 | [FA]2 [FA]2 [FA]2 | %23
w: “How can you|grieve Me from|day to|day?”|Shall I go|
w: Now, if I|will, I can|call Him|mine.|Can I the|
w: Sweet- ly it|falls on my|list- ening|ear;|Shall I re-|
w: Pi- ty my|sor- row, for-|give my|sin.|Now let Thy|
 [FA]2 [EG]2 [FA]2 | [Ac]4 [Ac]2 | [FA]4 [Ac]2 | [Bd]2 [df]2 [Bd]2 | [Ac]4 [EG]2 | F6 |] %29
w: on in the|old, old|way, Or|shall I be|saved to-|night?|
w: plea- sures of|earth re-|sign? Oh|shall I be|saved to-|night?|
w: ject Him, a|friend so|dear? Oh,|shall I be|saved to-|night?|
w: work in my|soul be-|gin, For|I will be|saved to-|night.|
V:2
 x6 | x6 | x6 | x6 | x6 | x6 | x6 | x6 | x6 | x6 | x6 | x6 | x6 | F6 | x6 | x6 | x6 | x6 | x6 | %19
 x6 | x6 | x6 | x6 | x6 | x6 | x6 | x6 | x6 | F6 |] %29
V:3
 [F,C]2 [F,C]2 [F,C]2 | [F,C]2 [F,C]2 [F,C]2 | [F,F]4 [F,F]2 | [F,C]6 | [C,C]2 [C,C]2 [C,C]2 | %5
 [C,A,]4 [C,C]2 | [F,C]6 | [F,C]2 [F,C]2 [F,C]2 | [F,C]2 [F,C]2 [F,C]2 | [F,F]4 [F,F]2 | [F,C]6 | %11
 F,2 [B,,F,]2 [B,,F,]2 | (F,2 C2) [C,B,]2 | [F,A,]6 | [D,D]2 [D,D]2 [D,D]2 | %15
 [F,D]2 [F,D]2 [E,^C]2 | [D,D]4 [A,,^C]2 | [D,D]6 | [D,A,]2 [F,D]2 [F,D]2 | [F,C]2 [F,A,]2 F,2 | %20
 [C,G,]4 [C,C]2 | [F,C]6 | [F,C]2 [F,C]2 [F,C]2 | [F,C]2 [F,C]2 [F,C]2 | [F,F]4 [F,F]2 | %25
 [F,C]4 F,2 | [B,,F,]2 [B,,F,]2 [B,,F,]2 | F,4 [C,B,]2 | [F,A,]6 |] %29
V:4
 x6 | x6 | x6 | x6 | x6 | x6 | x6 | x6 | x6 | x6 | x6 | x6 | C,4 x2 | x6 | x6 | x6 | x6 | x6 | x6 | %19
 x6 | x6 | x6 | x6 | x6 | x6 | x6 | x6 | C,4 x2 | x6 |] %29

